!!!OTL: In der Ferne.
!!!OTL-incipit:EINSAM EINSAM NEIN DAS BIN ICH NICHT
!!!COM: C. M. v. Weber
!!!ARE: Europa, Mitteleuropa, Deutschland
!!!SCT: F0448
!!!TXL: @@DE
!!!YEM: Copyright 1995, estate of Helmut Schaffrath.
**kern	**text
*ICvox	*
*clefG2	*
*M3/4	*
*k[f#c#g#]	*
*A:	*
=1	=1
!LO:TX:a:t=Langſam.	!
{4a	1._Ein-
4b/	-ſam?
4r	.
=2	=2
8.cc#L	ein-
16eeqq	.
16ddJ	.
4dd	-ſam?
4r}	.
=3	=3
{4.cc#	Nein,
8ee	das
8g#	bin
8b/	ich
=4	=4
2a	nicht!
4r}	.
=5	=5
{8f#	Denn
8a	die
8a	Gei-
8a	-ſter
16b/L	mei-
16aJ	.
16g#L	-ner
16f#J	.
=6	=6
8.f#L	Lie-
16eJ	.
4e	-ben,
4r}	.
=7	=7
{8a	die
8cc#	in
16ddL	fer-
16cc#J	.
16bL	-ner
16ccJ#	.
8eeL	Hei-
16ddJ	.
16b/	-math
=8	=8
(8.aLSS	ble-
16bJ)	.
4g#	-ben,
4r}	.
=9	=9
{8a	ſie
8a	um-
8bL	-ſchwe-
8aJ	.
8g#L	-ben
8aJ	.
=10	=10
(4g#	mich,
4f#)	.
4r}	.
=11	=11
{8e	ſie
8a	um-
(4cc#	-ſchwe-
!LO:TUP:a	!
12eeL	.
12ddJ)	.
12b	-ben
=12	=12
2a	mich.
4r}	.
==	==
!!!AGN: Heimat -, Wander - Lied
!!!ONB: ESAC (Essen Associative Code) Database: FINK
!!!AMT: simple triple
!!!AIN: vox
!!!EED: Helmut Schaffrath
!!!EEV: 1.0
!!!GTL: Vaterlands- und Heimathslieder
!!!GTL: Vaterlands- und Heimathslieder.
!!!source: Musikalischer Hausschatz der Deutschen. Eine Sammlung von über 1000 Liedern und Gesängen mit Singstimmen und Klavierbegleitung. Leipzig, Litterarisches Verlags-Haus.
!!!page: 276
!!!URL-scan: https://www.digitale-sammlungen.de/en/view/bsb11144622?page=266
!!!ENC: Anna Maria Matuszewska
!!!EEV: 2024/07/31
*-	*-